X:1
T:Send the Light
T:Send the Light
T:Charles Hutchinson Gabriel
T:Charles Hutchinson Gabriel, 1890
T:Public Domain Courtesy of the Cyber Hymnal™
T:Public Domain Courtesy of the Cyber Hymnal™
C:Charles Hutchinson Gabriel
Z:Public Domain
Z:Courtesy of the Cyber Hymnal™
%%score ( 1 2 ) ( 3 4 )
L:1/8
Q:1/4=112
M:4/4
K:G
V:1 treble 
V:2 treble 
V:3 bass 
V:4 bass 
V:1
 [B,D]>[B,D] | [B,G]2 [B,G]2 [B,G]>[B,D] [B,G]>[CA] | [DB]2 [DB]2 [DB]2 [Ec]>[DB] | [CA]6 | %4
w: 1.~There’s a|call comes ring- ing over the|rest- less wave, “Send the|light!|
w: 2.~We have|heard the Ma- ce- do- nian|call to- day, “Send the|light!|
w: 3.~Let us|pray that grace may ev- ery-|where a- bound, “Send the|light!|
w: 4.~Let us|not grow wear- y in the|work of love, “Send the|light!|
 [DB]>[CA] | [B,G]6 [B,D]>[B,D] | [B,G]2 [B,G]2 [B,G]>[B,D] [B,G]>[CA] | %7
w: Send the|light!” There are|souls to res- cue, there are|
w: Send the|light!” And a|gold- en off- ering at the|
w: Send the|light!” And a|Christ- like spir- it ev- ery-|
w: Send the|light!” Let us|ga- ther jew- els for a|
 [DB]2 [DB]2 [DB]2 [Ec]>[DB] | [CA]6 [DB]>[CA] | [B,G]6 |:"^Refrain" [GB]>[Ac] | %11
w: souls to save, Send the|light! Send the|light!||
w: cross we lay, Send the|light! Send the|light!||
w: where be found, Send the|light! Send the|light!|Send the|
w: crown a- bove, Send the|light! Send the|light!||
 [Bd]4- [Bd]>e [Bd]>[Ac] |1 [GB]2 [GB]2 [GB]2 [Ac]>[GB] | [FA]4- [FA]>[Ac] [GB]>[FA] | [GB]6 :|2 %15
w: ||||
w: ||||
w: light, * the bless- èd|Gos- pel light; Let it|shine * from shore to|shore!|
w: ||||
 [FA]4- [FA]>[Ec] [DB]>[CA] || G4- !fermata![B,G]2 |] %17
w: ||
w: ||
w: shine * for- ev- er-|more! *|
w: ||
V:2
 x2 | x8 | x8 | x6 | x2 | x8 | x8 | x8 | x8 | x6 |: x2 | x8 |1 x8 | x8 | x6 :|2 x8 || B,>ED>C x2 |] %17
V:3
 [G,,G,]>[G,,G,] | [G,,D,]2 [G,,D,]2 [G,,D,]>[G,,D,] [G,,G,]>[G,,G,] | G,2 G,2 G,2 z2 | %3
w: ~ ~|~ ~ ~ ~ ~ ~|~ ~ ~|
 z2 [D,F,]>[D,F,] [D,F,]2 | z2 | z2 [G,,D,]>[G,,D,] [G,,D,]2 [G,,G,]>[G,,G,] | %6
w: Send the light!||Send the light! ~ ~|
 [G,,D,]2 [G,,D,]2 [G,,D,]>[G,,D,] [G,,G,]>[G,,G,] | G,2 G,2 G,2 z2 | z2 [D,F,]>[D,F,] [D,F,]2 z2 | %9
w: ~ ~ ~ ~ ~ ~|~ ~ ~|Send the light!|
 z2 [G,,D,]>[G,,D,] [G,,D,]2 |: z2 | z2 [G,D]>[G,D] [G,D]2 [G,D]2 |1 %12
w: Send the light!||Send the light! the|
 [G,D]>[G,D] [G,D]>[G,D] [G,D]2 z2 | z2 [D,D]>[D,D] [D,D]2 z2 | z3/2 [G,D]/ [G,D]>[G,D] [G,D]2 :|2 %15
w: bless- èd Gos- pel light;|Let it shine|from shore to shore!|
 z2 [D,D]>[D,D] [D,D]2 z2 || z3/2 [G,,G,]/ [G,,F,]>[G,,E,] [G,,D,]2 |] %17
w: Let it shine|for- ev- er- more.|
V:4
 x2 | x8 | x8 | x6 | x2 | x8 | x8 | G,2 G,2 G,2 x2 | x8 | x6 |: x2 | x8 |1 x8 | x8 | x6 :|2 x8 || %16
 x6 |] %17

